X:195
T: SIE LEGTEN IHN AUF EINEN TISCH
N: E0100B
O: Europa, Mitteleuropa, Deutschland
R: erzaehlendes Volks - Lied, Sage, Liebe, Leid, Tod
M: 6/8
L: 1/16
K: G
d2 | _B4A2G4=F2 | G4A2_B4
d2 | _B4A2G4=F2 | G4A2_B4
Bc | d2d2d2d2_e2d2 | d6c4
A_B | c4c2c2d2c2 | c6_B4
BA | G4dc_B3cAB | G4z6

